X: 2009
T: Frailoch
C:Lunasa
B: steve tunes
M:4/4
L:1/8
Q: 1/4=100
K:G
V:1 
 "Em"BEGA BcBG | "Am7"A2 AG AB G2 | "Em"GBdB GBdB | "Am7"A2 AG AB G2 |"Am"GAAG "D"GFF=F | 
 "Em"E4 EDEF | "Am7"G AAG "D"GFF=F |1 "Em"E6 z2 :|2 "Em"E6 GB ||:"Em"e6 dc | B6 AB |
 eBeB e2 dc | B6 AB | e6 d2 | "D"f6ed x6 | "Em"eBeB e2 dc | "Em" B6 BA |"C"GABc BcBc |
 BcBc B2A2 |"Am"AEEA AEEA | AGAB A2 GF |"B7" GAAG GFF=F | "Em"E4 EDEF |
 "C"GAAG "D"GFF=F |1 "Em"E6 GB3/2 :|2 "Em"E6 z2 ||
% abcbook-tune_id 629f3e70344f948c4e2f1742


% abcbook-boost 13
% abcbook-tablature 
% abcbook-transpose 
% abcbook-lastupdated 1655985759223
% abcbook-soundfonts 
% abcbook-repeats 3


